chrome/icons/shield.svg

<svg height="16" viewBox="64 0 896 1024" width="16" xmlns="http://www.w3.org/2000/svg" xmlns:xlink="http://www.w3.org/1999/xlink">
  <path d="M64,480L64,192C64,182.667 66.5833,175.667 71.75,171C76.9167,166.333 83.5,162.833 91.5,160.5C98.8333,158.5 106.5,157.083 114.5,156.25C122.5,155.417 130.167,154.167 137.5,152.5C150.167,150.167 162.75,147.583 175.25,144.75C187.75,141.917 200.333,138.667 213,135C239,127.667 264,119.5 288,110.5C312,101.5 335.417,91.6667 358.25,81C381.083,70.3334 403.667,58.6667 426,46C448.333,33.3334 471,19.8334 494,5.5C497,3.83337 499.833,2.5 502.5,1.5C505.167,0.5 508.333,0 512,0C515.667,0 518.833,0.5 521.5,1.5C524.167,2.5 527,3.83337 530,5.5C553,19.8334 575.667,33.3334 598,46C620.333,58.6667 642.917,70.3334 665.75,81C688.583,91.6667 712,101.5 736,110.5C760,119.5 785,127.667 811,135C823.667,138.667 836.25,141.917 848.75,144.75C861.25,147.583 873.833,150.167 886.5,152.5C893.833,154.167 901.5,155.417 909.5,156.25C917.5,157.083 925.167,158.5 932.5,160.5C940.5,162.833 947.083,166.333 952.25,171C957.417,175.667 960,182.667 960,192L960,480C960,550.333 948.833,613.75 926.5,670.25C904.167,726.75 873.417,777.083 834.25,821.25C795.083,865.417 748.917,904 695.75,937C642.583,970 585.167,998.333 523.5,1022C520.5,1023.33 516.667,1024 512,1024C510.333,1024 508.417,1023.83 506.25,1023.5C504.083,1023.17 502.167,1022.67 500.5,1022C438.833,998.667 381.417,970.417 328.25,937.25C275.083,904.083 228.917,865.25 189.75,820.75C150.583,776.25 119.833,725.833 97.5,669.5C75.1667,613.167 64,550 64,480ZM896,480L896,219.5C827.667,207.833 761.167,189.5 696.5,164.5C631.833,139.5 570.333,108 512,70C453.667,108 392.167,139.5 327.5,164.5C262.833,189.5 196.333,207.833 128,219.5L128,480C128,542.333 137.833,598.25 157.5,647.75C177.167,697.25 204.25,741.333 238.75,780C273.25,818.667 313.833,852.583 360.5,881.75C407.167,910.917 457.667,936.167 512,957.5C566.333,936.167 616.833,910.917 663.5,881.75C710.167,852.583 750.75,818.667 785.25,780C819.75,741.333 846.833,697.25 866.5,647.75C886.167,598.25 896,542.333 896,480Z" fill="context-fill" fill-opacity="context-fill-opacity">
  </path>
</svg>

<svg xmlns="http://www.w3.org/2000/svg" width="16" height="16" viewBox="64 0 896 1024"><path fill="context-fill" fill-opacity="context-fill-opacity" d="M64 480V192q0-14 7.75-21t19.75-10.5q11-3 23-4.25t23-3.75a946 946 0 0 0 37.75-7.75A662 662 0 0 0 213 135q39-11 75-24.5T358.25 81 426 46t68-40.5q4.5-2.5 8.5-4T512 0t9.5 1.5 8.5 4Q564.5 27 598 46t67.75 35A974 974 0 0 0 736 110.5q36 13.5 75 24.5a662 662 0 0 0 37.75 9.75 946 946 0 0 0 37.75 7.75q11 2.5 23 3.75t23 4.25q12 3.5 19.75 10.5t7.75 21v288q0 105.5-33.5 190.25t-92.25 151T695.75 937t-172.25 85c-3 1.33-6.833 2-11.5 2-1.667 0-3.583-.17-5.75-.5q-3.25-.495-5.75-1.5-92.5-35-172.25-84.75t-138.5-116.5T97.5 669.5 64 480m832 0V219.5q-102.5-17.5-199.5-55T512 70q-87.5 57-184.5 94.5t-199.5 55V480q0 93.5 29.5 167.75T238.75 780 360.5 881.75 512 957.5q81.5-32 151.5-75.75T785.25 780t81.25-132.25T896 480"/></svg>
